svgs/sharp-solid/trash-plus.svg

<svg xmlns="http://www.w3.org/2000/svg" viewBox="0 0 448 512"><!--! Font Awesome Pro 6.6.0 by @fontawesome - https://fontawesome.com License - https://fontawesome.com/license (Commercial License) Copyright 2024 Fonticons, Inc. --><path d="M304 0l16 32 128 0 0 64L0 96 0 32l128 0L144 0 304 0zM32 128l384 0L392 512 56 512 32 128zM200 432l48 0 0-24 0-64 64 0 24 0 0-48-24 0-64 0 0-64 0-24-48 0 0 24 0 64-64 0-24 0 0 48 24 0 64 0 0 64 0 24z"/></svg>

<svg xmlns="http://www.w3.org/2000/svg" viewBox="0 0 448 512"><!--! Font Awesome Pro 6.4.2 by @fontawesome - https://fontawesome.com License - https://fontawesome.com/license (Commercial License) Copyright 2023 Fonticons, Inc. --><path d="M304 0l16 32H448V96H0V32H128L144 0H304zM32 128H416L392 512H56L32 128zM200 432h48V408 344h64 24V296H312 248V232l0-24H200v24 64H136 112v48h24 64v64 24z"/></svg>
